X:1
T:Lynton, CM
T:Arthur James Jamouneau, 1904
T:Lynton, CM
T:Public Domain
C:Arthur James Jamouneau, 1904
Z:Public Domain
%%score ( 1 2 ) ( 3 4 )
L:1/8
M:3/4
K:Db
V:1 treble 
V:2 treble 
V:3 bass 
V:4 bass 
V:1
 [DF]2 [DF]2 [DF]2 | [CE]4 [DF]2 | [DA]4 [EG]2 | [DF]6 | [FA]2 [FA]2 [F=A]2 | [FB]4 [=DF]2 | %6
 [EG]6 | [Gc]2 [Gc]2 [GB]2 | [GA]4 [GA]2 | [FA]2 [Af]2 [Ae]2 | [Ad]6 | (GF) [EA]2 [DF]2 | %12
 [DE]4 [CG]2 | [DF]6 |] %14
V:2
 x6 | x6 | x6 | x6 | x6 | x6 | x6 | x6 | x6 | x6 | x6 | B2 x4 | x6 | x6 |] %14
V:3
 [D,A,]2 [D,A,]2 [D,A,]2 | [G,A,]4 [D,A,]2 | [E,B,]4 [A,,A,]2 | [D,A,]6 | [D,D]2 [D,D]2 [C,E]2 | %5
 [B,,=D]4 [B,,B,]2 | [E,B,]6 | [A,,C]2 [A,,E]2 [A,,D]2 | [A,,C]2 [B,,D]2 [C,E]2 | [D,D]4 [E,C]2 | %10
 [F,D]6 | [G,D]2 [A,C]2 [B,D]2 | [G,B,]4 A,2 | [D,A,]6 |] %14
V:4
 x6 | x6 | x6 | x6 | x6 | x6 | x6 | x6 | x6 | x6 | x6 | x6 | x4 A,2 | x6 |] %14

